X: 790
T: Tudi fa
L: 1/8
M: 2/4
K: G
d g e d [I:setbarnb 1]| 
d GA2 | 
d d/ e/ d G | 
A2z2 | 
A> B B d | 
B A G F | 
E GA2 | 
B> G F E | 
D4 |]

@@@ Tune index: 9664
